src/assets/icons/she-google.svg

<svg height="35" viewBox="0 0 35 35" width="35" xmlns="http://www.w3.org/2000/svg"><g fill="none"><circle cx="17.5" cy="17.5" fill="#4282f1" r="17.5"/><path d="m12.075 9.485h11.13v1.75h-11.13z" fill="#fff"/><g transform="translate(8.54 8.89)"><path d="m15.946595.02961h-13.97375c-.435295 0-.788095.35329-.788095.788585v2.62192h15.55036v-2.62192c.000035-.43533-.353255-.788585-.788515-.788585zm-10.760995 1.57766c-.208355 0-.37744-.169085-.37744-.37744s.169085-.37744.37744-.37744.37744.169085.37744.37744-.16912.37744-.37744.37744zm7.64736 0c-.208355 0-.37744-.169085-.37744-.37744s.169085-.37744.37744-.37744.37744.169085.37744.37744-.16912.37744-.37744.37744z" fill="#2762c8"/><path d="m17.902675 3.623305-1.192695 6.21964.48713 6.467755c.035735.474565-.33971.87969-.81627.87969h-14.84224c-.47607 0-.852005-.405125-.81627-.87969l.487655-6.467755-1.192695-6.21964c-.11221-.58478.336175-1.127805.932015-1.127805h16.0209c.59633 0 1.04468.543025.93247 1.127805z" fill="#d9d9d9"/><path d="m16.38084 17.190355h-14.84224c-.47607 0-.852005-.405125-.81627-.87969l.487655-6.467755h8.555225 6.944805l.48713 6.467755c.035735.474565-.33971.87969-.816305.87969z" fill="#fff"/><g fill="#4282f1" transform="translate(4.095 5.705)"><path d="m4.562985 2.51496c0-1.214045-1.01591-2.20171-2.264605-2.20171s-2.264605.987665-2.264605 2.20171h.75488c0-.79779.677285-1.44683 1.50976-1.44683s1.50976.64904 1.50976 1.44683-.677285 1.44683-1.50976 1.44683h-.70455v.75488h.70455c.832475 0 1.50976.64904 1.50976 1.44683s-.677285 1.44683-1.50976 1.44683-1.50976-.64904-1.50976-1.44683h-.75488c0 1.214045 1.01591 2.20171 2.264605 2.20171s2.264605-.987665 2.264605-2.20171c0-.758205-.39627-1.42807-.997955-1.82427.60172-.396165.997955-1.066065.997955-1.82427z"/><path d="m6.030115 1.59964.38724.64799 1.49226-.891695v6.631835h.754845v-7.96229z"/></g></g></g></svg>

<?xml version="1.0" encoding="UTF-8"?>
<svg width="35px" height="35px" viewBox="0 0 35 35" version="1.1" xmlns="http://www.w3.org/2000/svg" xmlns:xlink="http://www.w3.org/1999/xlink">
    <!-- Generator: Sketch 50.2 (55047) - http://www.bohemiancoding.com/sketch -->
    <title>Group 2</title>
    <desc>Created with Sketch.</desc>
    <defs></defs>
    <g id="Page-1" stroke="none" stroke-width="1" fill="none" fill-rule="evenodd">
        <g id="Group-2" fill-rule="nonzero">
            <circle id="Oval" fill="#4282F1" cx="17.5" cy="17.5" r="17.5"></circle>
            <rect id="Rectangle" fill="#FFFFFF" x="12.075" y="9.485" width="11.13" height="1.75"></rect>
            <g id="calendar" transform="translate(8.540000, 8.890000)">
                <path d="M15.946595,0.02961 L1.972845,0.02961 C1.53755,0.02961 1.18475,0.3829 1.18475,0.818195 L1.18475,3.440115 L16.73511,3.440115 L16.73511,0.818195 C16.735145,0.382865 16.381855,0.02961 15.946595,0.02961 Z M5.1856,1.60727 C4.977245,1.60727 4.80816,1.438185 4.80816,1.22983 C4.80816,1.021475 4.977245,0.85239 5.1856,0.85239 C5.393955,0.85239 5.56304,1.021475 5.56304,1.22983 C5.56304,1.438185 5.39392,1.60727 5.1856,1.60727 Z M12.83296,1.60727 C12.624605,1.60727 12.45552,1.438185 12.45552,1.22983 C12.45552,1.021475 12.624605,0.85239 12.83296,0.85239 C13.041315,0.85239 13.2104,1.021475 13.2104,1.22983 C13.2104,1.438185 13.04128,1.60727 12.83296,1.60727 Z" id="Shape" fill="#2762C8"></path>
                <path d="M17.902675,3.623305 L16.70998,9.842945 L17.19711,16.3107 C17.232845,16.785265 16.8574,17.19039 16.38084,17.19039 L1.5386,17.19039 C1.06253,17.19039 0.686595,16.785265 0.72233,16.3107 L1.209985,9.842945 L0.01729,3.623305 C-0.09492,3.038525 0.353465,2.4955 0.949305,2.4955 L16.970205,2.4955 C17.566535,2.4955 18.014885,3.038525 17.902675,3.623305 Z" id="Shape" fill="#D9D9D9"></path>
                <path d="M16.38084,17.190355 L1.5386,17.190355 C1.06253,17.190355 0.686595,16.78523 0.72233,16.310665 L1.209985,9.84291 L9.76521,9.84291 L16.710015,9.84291 L17.197145,16.310665 C17.23288,16.78523 16.857435,17.190355 16.38084,17.190355 Z" id="Shape" fill="#FFFFFF"></path>
                <g id="Group" transform="translate(4.095000, 5.705000)" fill="#4282F1">
                    <path d="M4.562985,2.51496 C4.562985,1.300915 3.547075,0.31325 2.29838,0.31325 C1.049685,0.31325 0.033775,1.300915 0.033775,2.51496 L0.788655,2.51496 C0.788655,1.71717 1.46594,1.06813 2.298415,1.06813 C3.13089,1.06813 3.808175,1.71717 3.808175,2.51496 C3.808175,3.31275 3.13089,3.96179 2.298415,3.96179 L1.593865,3.96179 L1.593865,4.71667 L2.298415,4.71667 C3.13089,4.71667 3.808175,5.36571 3.808175,6.1635 C3.808175,6.96129 3.13089,7.61033 2.298415,7.61033 C1.46594,7.61033 0.788655,6.96129 0.788655,6.1635 L0.033775,6.1635 C0.033775,7.377545 1.049685,8.36521 2.29838,8.36521 C3.547075,8.36521 4.562985,7.377545 4.562985,6.1635 C4.562985,5.405295 4.166715,4.73543 3.56503,4.33923 C4.16675,3.943065 4.562985,3.273165 4.562985,2.51496 Z" id="Shape"></path>
                    <polygon id="Shape" points="6.030115 1.59964 6.417355 2.24763 7.909615 1.355935 7.909615 7.98777 8.66446 7.98777 8.66446 0.02548"></polygon>
                </g>
            </g>
        </g>
    </g>
</svg>
